X:1
T:Title
%%score { ( 1 4 6 ) | ( 2 3 5 ) }
L:1/8
Q:1/4=100
M:4/4
K:F
V:1 treble nm="Grand Piano"
V:4 treble 
V:6 treble 
V:2 bass 
V:3 bass 
V:5 bass 
V:1
 c2 c2 d2 c2 | AG z G A2 A2 | cFEF c2 F2 | z2 C2 GA[GB][Ac] | d2 d2 e2 d2 | %5
w: Chas.~H.~Marsh * * *|||||
 [GB][FA][EG][FA] [GB]2 [GB]2 | A_A=A=B c2 d2 | c2- [Bc-]2 [Ac]2 [EG]2 | c2 A2 d2 A2 | %9
w: ||||
 c2 c2 c2 E2 | d^cdc [Ed]2 G2 | c6[K:bass] z2 | [Gd]2 [Fd]2 [Fd]2 G2 | c=Bcd c2 A2 | %14
w: |||||
 [EG][Bd][Ac][CGB] [CFA]2 [B,EG]2 | [A,F]6 z2 |] %16
w: ||
V:2
 F8- | F2 z2 z4 | [F,A,]2 [C,A,]2 [F,A,]2 [C,A,]2 | z4[K:treble] .E2[K:bass] z2 | %4
 [G,C]2 [C,C]2 [G,C]2 [C,C]2 | [E,C]2 [C,C]2 [E,C]2 [C,C]2 | [F,C]2 [^F,C_E]2 [G,C=E]2 [G,,G,]2 | %7
 [C,C]2 [DE]2 [CE]2 [C,B,]2 | [F,A,F]2 [F,CF]2 [F,A,F]2 [F,CF]2 | %9
 [F,A,F]2 [^F,A,_E]2 [G,B,=E]2 [G,B,C]2 | [C,B,]2 [C,B,]2 [C,B,]2[K:treble] [B,CE]2 | %11
 [A,CF]2[K:bass] [G,B,]2 [F,A,]2 z2 | [B,,B,]2 [B,,B,]2 [B,,B,]2[K:treble] [B,DF]2 | %13
 F2 F2 z4[K:bass] | [C,C][C,C]CC, C,2 C,2 | F,6 z2 |] %16
V:3
 [F,A,]2 [C,A,]2 [F,A,]2 [C,A,]2 | F,-[F,B,]C,-[C,B,] [F,C]2 [C,C]2 | x8 | %3
 x4[K:treble] x2[K:bass] x2 | x8 | x8 | x8 | x8 | x8 | x8 | x6[K:treble] x2 | x2[K:bass] x6 | %12
 x6[K:treble] x2 | x6[K:bass] x2 | x8 | x8 |] %16
V:4
 x8 | z2 F6 | x8 | E4 z4 | [EB]4 [EB]4 | x8 | x8 | E2 z2 z4 | x8 | x8 | E2 E2 z4 | %11
 z4 F2[K:bass] z2 | x8 | x8 | x8 | x8 |] %16
V:5
 x8 | .C2 .A,2 z4 | x8 | [G,B,C]2 [C,B,]2[K:treble] [G,B,C]-[G,B,CF][K:bass] [C,B,C]2 | x8 | x8 | %6
 x8 | x8 | x8 | x8 | x6[K:treble] x2 | x2[K:bass] x6 | x6[K:treble] x2 | %13
 [A,C][_A,D][=A,C][_A,=B,] [=A,CF]2[K:bass] [F,CF]2 | x8 | x8 |] %16
V:6
 x8 | x8 | x8 | x8 | x8 | x8 | x8 | x8 | x8 | x8 | x8 | z2 E2 z[K:bass] _E,D,C, | x8 | x8 | x8 | %15
 x8 |] %16

